X: 1
T: Johnny's Jig
C: John McCusker
R: jig
Z: 2019 John Chambers <jc:trillian.mit.edu>
M: 6/8
L: 1/8
K: D
|:\
"D"Add cdA- | Add cdA |\
"G"dB/c/d ede | "A"f2f edB |\
"D"Add cdA- | Add cdA |
"G"dB/c/d efg | "A7"fdc [1 "D"d3 :|2 "D"def ||\
"G"gBB BAG | "D"ABA f2f |\
"A7"gAA cBc | "D"edd def |
"G"gBB BAG | "D"ABA f2f |\
"A7"gAA cBc | "D"edd def |]\
"G"gBB BAG | "D"ABA f2f |
"A7"gAA cBc | "D"edd dcA |\
"G"BB/B/B BAG | "D"ABA f2f |\
"A7"gAA cBc | edd "D"d3 |]
